src/assets/icons/social/facebook.svg

<svg width="36" height="36" viewBox="0 0 36 36" fill="none" xmlns="http://www.w3.org/2000/svg">
<circle cx="18" cy="18" r="18" fill="white"/>
<path d="M22.5016 9H19.8016C18.6081 9 17.4635 9.47411 16.6196 10.318C15.7757 11.1619 15.3016 12.3065 15.3016 13.5V16.2H12.6016V19.8H15.3016V27H18.9016V19.8H21.6016L22.5016 16.2H18.9016V13.5C18.9016 13.2613 18.9964 13.0324 19.1652 12.8636C19.3339 12.6948 19.5629 12.6 19.8016 12.6H22.5016V9Z" stroke="#383638" stroke-width="2" stroke-linecap="round" stroke-linejoin="round"/>
</svg>

<svg width="36" height="36" fill="none" xmlns="http://www.w3.org/2000/svg"><circle cx="18" cy="18" r="18" fill="#fff"/><path d="M22.502 9h-2.7a4.5 4.5 0 0 0-4.5 4.5v2.7h-2.7v3.6h2.7V27h3.6v-7.2h2.7l.9-3.6h-3.6v-2.7a.9.9 0 0 1 .9-.9h2.7V9Z" stroke="#383638" stroke-width="2" stroke-linecap="round" stroke-linejoin="round"/></svg>
